src/icons/outline/status/close-circle.svg

<svg width="24" height="24" viewBox="0 0 24 24" fill="none" xmlns="http://www.w3.org/2000/svg">
<g clip-path="url(#clip0_4787_755)">
<path d="M15.2529 7.80469C15.5107 7.54691 15.9375 7.54691 16.1953 7.80469C16.453 8.06242 16.4529 8.48833 16.1953 8.74609L12.9336 12.0088L16.1953 15.2715C16.4529 15.5292 16.4529 15.9551 16.1953 16.2129C16.062 16.3462 15.8934 16.4091 15.7246 16.4092C15.5557 16.4092 15.3863 16.3462 15.2529 16.2129L11.9912 12.9512L8.72852 16.2129C8.59521 16.3462 8.42667 16.4092 8.25781 16.4092C8.08892 16.4092 7.91947 16.3462 7.78613 16.2129C7.52892 15.9552 7.52895 15.5292 7.78613 15.2715L11.0488 12.0088L7.78613 8.74609C7.52896 8.4884 7.52891 8.06235 7.78613 7.80469C8.04391 7.54691 8.47074 7.54691 8.72852 7.80469L11.9912 11.0664L15.2529 7.80469Z" fill="#3C3B44"/>
<path fill-rule="evenodd" clip-rule="evenodd" d="M12 2C17.5111 2 22 6.48889 22 12C22 17.52 17.5111 22 12 22L11.9912 22.0088C9.32454 22.0088 6.80925 20.9685 4.9248 19.0752C3.04036 17.1908 2 14.6756 2 12C2 6.48889 6.48889 2 12 2ZM11.9863 3.3418C7.20633 3.34439 3.32427 7.2282 3.32422 12.0088C3.32422 14.3199 4.22187 16.4981 5.85742 18.1426C7.49298 19.7781 9.67131 20.6846 11.9824 20.6846C16.7646 20.6845 20.6484 16.7997 20.6484 12.0176C20.6483 7.23693 16.7664 3.34421 11.9863 3.3418Z" fill="#3C3B44"/>
</g>
<defs>
<clipPath id="clip0_4787_755">
<rect width="24" height="24" fill="white"/>
</clipPath>
</defs>
</svg>

<svg xmlns="http://www.w3.org/2000/svg" width="24" height="24" fill="none" viewBox="0 0 24 24"><g fill="currentColor" clip-path="url(#a)"><path d="M15.253 7.805a.67.67 0 0 1 .942 0 .67.67 0 0 1 0 .941l-3.262 3.263 3.262 3.262a.67.67 0 0 1 0 .942.66.66 0 0 1-.942 0L11.99 12.95l-3.26 3.263a.66.66 0 0 1-.942 0 .67.67 0 0 1 0-.941l3.262-3.263-3.263-3.263a.67.67 0 0 1 0-.941.67.67 0 0 1 .943 0l3.261 3.261z"/><path fill-rule="evenodd" d="M12 2c5.511 0 10 4.489 10 10 0 5.52-4.489 10-10 10l-.009.009a9.9 9.9 0 0 1-7.066-2.934A9.94 9.94 0 0 1 2 12C2 6.489 6.489 2 12 2m-.014 1.342c-4.78.002-8.662 3.886-8.662 8.667 0 2.31.898 4.49 2.533 6.134a8.62 8.62 0 0 0 6.125 2.542c4.783 0 8.666-3.885 8.666-8.667 0-4.781-3.881-8.674-8.662-8.676" clip-rule="evenodd"/></g><defs><clipPath id="a"><path fill="currentColor" d="M0 0h24v24H0z"/></clipPath></defs></svg>
